X: 30600
T: One More For The Road
R: reel
M: 4/4
K: Gmajor
|:"G"G2BG dGBG|"C"cBAG "G"FGEF|"D"D2FD ADFD|"A7"GFEF "D"DEFD|
"G"G2BG dGBG|"C"cBAG "G"FGAB|"C"cdeg "D"fgaf|1 "G"gdBd "D"cAFA:|2 "G"gdBd "D7"cdef||
|:"G"g2bg dgbg|g2bg "D"afdf|"G"g2bg dgbg|"C"cBAB "D7"cdef|
"G"g2bg dgbg|g2bg "D"afdf|"G"bgaf "D"gefd|1 "C"ecdB "D7"cdef:|2 "C"ecdB "D7"cAFA||

